public/new/vuesaxboldbitcoinconvert1.svg

<svg width="24" height="24" viewBox="0 0 24 24" fill="none" xmlns="http://www.w3.org/2000/svg">
<path d="M23.0004 15.2197C22.5904 15.2197 22.2504 15.5597 22.2504 15.9697C22.2504 18.9297 20.1904 21.4097 17.4204 22.0597L17.6904 21.6097C17.9004 21.2497 17.7904 20.7897 17.4304 20.5797C17.0804 20.3697 16.6104 20.4797 16.4004 20.8397L15.3504 22.5897C15.2104 22.8197 15.2104 23.1097 15.3404 23.3397C15.4704 23.5797 15.7204 23.7197 15.9904 23.7197C20.2604 23.7197 23.7404 20.2397 23.7404 15.9697C23.7504 15.5597 23.4104 15.2197 23.0004 15.2197Z" fill="#434665"/>
<path d="M8 0.219727C3.73 0.219727 0.25 3.69973 0.25 7.96973C0.25 8.37973 0.59 8.71973 1 8.71973C1.41 8.71973 1.75 8.37973 1.75 7.96973C1.75 5.00973 3.81 2.52973 6.58 1.87973L6.31 2.32973C6.1 2.68973 6.21 3.14973 6.57 3.35973C6.92 3.56973 7.39 3.45973 7.6 3.09973L8.65 1.34973C8.78 1.11973 8.79 0.839727 8.65 0.599727C8.52 0.369727 8.27 0.219727 8 0.219727Z" fill="#434665"/>
<path d="M21.5002 8.67C21.5002 11.75 19.2602 14.29 16.3302 14.76C16.3302 14.75 16.3302 14.75 16.3302 14.74C16.0402 11.01 13.0202 7.97 9.24023 7.67C9.71023 4.74 12.2502 2.5 15.3302 2.5C18.7402 2.5 21.5002 5.26 21.5002 8.67Z" fill="#434665"/>
<path d="M9.80914 14.2003C9.80914 14.0503 9.63914 13.8203 9.42914 13.8203H7.36914V14.5703H9.42914C9.63914 14.5803 9.80914 14.4103 9.80914 14.2003Z" fill="#434665"/>
<path d="M9.82914 16.0801H9.42914H7.36914V16.8301H9.83914C10.1591 16.8301 10.3791 16.6301 10.3791 16.4501C10.3791 16.2701 10.1491 16.0801 9.82914 16.0801Z" fill="#434665"/>
<path d="M14.83 14.8504C14.6 11.8204 12.18 9.40039 9.15 9.17039C8.99 9.16039 8.84 9.15039 8.67 9.15039C5.26 9.15039 2.5 11.9104 2.5 15.3304C2.5 18.7404 5.26 21.5004 8.67 21.5004C12.08 21.5004 14.85 18.7404 14.85 15.3304C14.85 15.1604 14.84 15.0104 14.83 14.8504ZM9.83 18.3304H9.17V18.7104C9.17 19.1204 8.83 19.4604 8.42 19.4604C8.01 19.4604 7.67 19.1204 7.67 18.7104V18.3304H6.62C6.21 18.3304 5.87 17.9904 5.87 17.5804V15.3304V13.0804C5.87 12.6704 6.21 12.3304 6.62 12.3304H7.67V11.9504C7.67 11.5404 8.01 11.2004 8.42 11.2004C8.83 11.2004 9.17 11.5404 9.17 11.9504V12.3304H9.43C10.43 12.3304 11.31 13.2104 11.31 14.2104C11.31 14.5004 11.24 14.7704 11.12 15.0204C11.58 15.3604 11.87 15.8804 11.87 16.4604C11.87 17.4904 10.96 18.3304 9.83 18.3304Z" fill="#434665"/>
</svg>

<svg fill="none" height="24" viewBox="0 0 24 24" width="24" xmlns="http://www.w3.org/2000/svg"><g fill="#434665"><path d="m23.0004 15.2197c-.41 0-.75.34-.75.75 0 2.96-2.06 5.44-4.83 6.09l.27-.45c.21-.36.1-.82-.26-1.03-.35-.21-.82-.1-1.03.26l-1.05 1.75c-.14.23-.14.52-.01.75.13.24.38.38.65.38 4.27 0 7.75-3.48 7.75-7.75.01-.41-.33-.75-.74-.75z"/><path d="m8 .219727c-4.27 0-7.75 3.480003-7.75 7.750003 0 .41.34.75.75.75s.75-.34.75-.75c0-2.96 2.06-5.44 4.83-6.09l-.27.45c-.21.36-.1.82.26 1.03.35.21.82.1 1.03-.26l1.05-1.75c.13-.23.14-.510003 0-.750003-.13-.23-.38-.38-.65-.38z"/><path d="m21.5002 8.67c0 3.08-2.24 5.62-5.17 6.09 0-.01 0-.01 0-.02-.29-3.73-3.31-6.77-7.08997-7.07.47-2.93 3.00997-5.17 6.08997-5.17 3.41 0 6.17 2.76 6.17 6.17z"/><path d="m9.80914 14.2003c0-.15-.17-.38-.38-.38h-2.06v.75h2.06c.21.01.38-.16.38-.37z"/><path d="m9.82914 16.0801h-.4-2.06v.75h2.47c.31996 0 .53996-.2.53996-.38s-.23-.37-.54996-.37z"/><path d="m14.83 14.8504c-.23-3.03-2.65-5.45001-5.68-5.68001-.16-.01-.31-.02-.48-.02-3.41 0-6.17 2.76001-6.17 6.18001 0 3.41 2.76 6.17 6.17 6.17s6.18-2.76 6.18-6.17c0-.17-.01-.32-.02-.48zm-5 3.48h-.66v.38c0 .41-.34.75-.75.75s-.75-.34-.75-.75v-.38h-1.05c-.41 0-.75-.34-.75-.75v-2.25-2.25c0-.41.34-.75.75-.75h1.05v-.38c0-.41.34-.75.75-.75s.75.34.75.75v.38h.26c1 0 1.88.88 1.88 1.88 0 .29-.07.56-.19.81.46.34.75.86.75 1.44 0 1.03-.91 1.87-2.04 1.87z"/></g></svg>
